img/icon-pistol.svg

<svg width="64" height="64" viewBox="0 0 64 64" fill="none" xmlns="http://www.w3.org/2000/svg">
<rect width="2.19873" height="4.73141" rx="1.09937" transform="matrix(-0.920445 0.390873 0.390873 0.920445 22.4727 34.9395)" fill="#01D4E4"/>
<path fill-rule="evenodd" clip-rule="evenodd" d="M22.8442 44.3139C18.7465 44.3139 15.4247 40.9921 15.4247 36.8945C15.4247 32.7968 18.7465 29.475 22.8442 29.475C26.9419 29.475 30.2637 32.7968 30.2637 36.8945C30.2637 40.9921 26.9419 44.3139 22.8442 44.3139ZM22.8442 42.2701C19.8752 42.2701 17.4684 39.8633 17.4684 36.8943C17.4684 33.9253 19.8752 31.5185 22.8442 31.5185C25.8132 31.5185 28.22 33.9253 28.22 36.8943C28.22 39.8633 25.8132 42.2701 22.8442 42.2701Z" fill="#00B0CC"/>
<path d="M17.8065 49.6431L21.8024 34.7303C21.9042 34.3503 21.6787 33.9597 21.2987 33.8579L17.659 32.8826C15.5251 32.3109 13.3318 33.5772 12.76 35.711L8.05526 53.2695C7.48349 55.4034 8.74982 57.5967 10.8837 58.1685L16.9093 59.783C18.3703 60.1745 19.8721 59.3075 20.2636 57.8464C20.4516 57.1448 20.3532 56.3972 19.99 55.7682L18.2061 52.6784C17.6757 51.7596 17.5319 50.6678 17.8065 49.6431Z" fill="#01D4E4"/>
<rect width="11.5514" height="4.77537" transform="matrix(-1 0 0 1 56.4277 20.2856)" fill="#00B0CC"/>
<path d="M2.98835 15.9312C2.98837 12.6049 5.91795 10.0399 9.21503 10.4794L44.9 15.2359C47.6325 15.6001 49.6733 17.931 49.6733 20.6877V23.7556C49.6733 26.4688 47.6946 28.7767 45.0132 29.1911L9.32826 34.7052C5.99549 35.2202 2.98837 32.6421 2.98835 29.2697L2.98833 22.6732L2.98835 15.9312Z" fill="#01D4E4" stroke="#01D4E4"/>
<circle cx="20.1992" cy="22.6733" r="14.6758" fill="#00B0CC"/>
<circle cx="20.1997" cy="22.6733" r="11.5961" fill="#01D4E4"/>
<g style="mix-blend-mode:multiply">
<circle cx="20.199" cy="22.6732" r="4.43926" fill="#01D4E4"/>
</g>
<g style="mix-blend-mode:multiply">
<circle cx="13.8153" cy="27.704" r="1.15218" transform="rotate(9.0811 13.8153 27.704)" fill="#01D4E4"/>
</g>
<g style="mix-blend-mode:multiply">
<circle r="1.15218" transform="matrix(0.987466 -0.157832 -0.157832 -0.987466 13.8153 17.5063)" fill="#01D4E4"/>
</g>
<g style="mix-blend-mode:multiply">
<circle cx="18.1512" cy="29.9795" r="1.15218" transform="rotate(9.0811 18.1512 29.9795)" fill="#01D4E4"/>
</g>
<g style="mix-blend-mode:multiply">
<circle r="1.15218" transform="matrix(0.987466 -0.157832 -0.157832 -0.987466 18.1512 15.2309)" fill="#01D4E4"/>
</g>
<g style="mix-blend-mode:multiply">
<circle cx="22.7313" cy="29.9795" r="1.15218" transform="rotate(9.0811 22.7313 29.9795)" fill="#01D4E4"/>
</g>
<g style="mix-blend-mode:multiply">
<circle r="1.15218" transform="matrix(0.987466 -0.157832 -0.157832 -0.987466 22.7313 15.2309)" fill="#01D4E4"/>
</g>
<g style="mix-blend-mode:multiply">
<circle cx="26.0789" cy="27.704" r="1.15218" transform="rotate(9.0811 26.0789 27.704)" fill="#01D4E4"/>
</g>
<g style="mix-blend-mode:multiply">
<circle r="1.15218" transform="matrix(0.987466 -0.157832 -0.157832 -0.987466 26.0789 17.5063)" fill="#01D4E4"/>
</g>
<g style="mix-blend-mode:multiply">
<circle r="1.15218" transform="matrix(0.987466 -0.157832 -0.157832 -0.987466 37.9559 22.6862)" fill="#01D4E4"/>
</g>
<g style="mix-blend-mode:multiply">
<circle r="1.15218" transform="matrix(0.987466 -0.157832 -0.157832 -0.987466 42.2606 22.6862)" fill="#01D4E4"/>
</g>
<g style="mix-blend-mode:multiply">
<circle r="1.15218" transform="matrix(0.987466 -0.157832 -0.157832 -0.987466 46.5653 22.6862)" fill="#01D4E4"/>
</g>
<circle cx="57.2882" cy="22.6733" r="4.22376" fill="#01D4E4"/>
</svg>

<svg width="64" height="64" fill="none" xmlns="http://www.w3.org/2000/svg"><rect width="2.199" height="4.731" rx="1.099" transform="scale(-1 1) rotate(23.009 -97.07 -37.737)" fill="#01D4E4"/><path fill-rule="evenodd" clip-rule="evenodd" d="M22.844 44.314a7.42 7.42 0 1 1 0-14.839 7.42 7.42 0 0 1 0 14.839Zm0-2.044a5.376 5.376 0 1 1 0-10.751 5.376 5.376 0 0 1 0 10.751Z" fill="#00B0CC"/><path d="m17.806 49.643 3.996-14.913a.712.712 0 0 0-.503-.872l-3.64-.975a4 4 0 0 0-4.899 2.828L8.055 53.27a4 4 0 0 0 2.829 4.898l6.025 1.615a2.739 2.739 0 0 0 3.081-4.015l-1.784-3.09a4 4 0 0 1-.4-3.035Z" fill="#01D4E4"/><path fill="#00B0CC" d="M56.428 20.286H44.877v4.775h11.55z"/><path d="M2.988 15.931a5.5 5.5 0 0 1 6.227-5.452L44.9 15.236a5.5 5.5 0 0 1 4.773 5.452v3.068a5.5 5.5 0 0 1-4.66 5.435L9.328 34.705a5.5 5.5 0 0 1-6.34-5.435V15.93Z" fill="#01D4E4" stroke="#01D4E4"/><circle cx="20.199" cy="22.673" r="14.676" fill="#00B0CC"/><circle cx="20.2" cy="22.673" r="11.596" fill="#01D4E4"/><circle cx="20.199" cy="22.673" r="4.439" fill="#01D4E4" style="mix-blend-mode:multiply"/><circle cx="13.815" cy="27.704" r="1.152" transform="rotate(9.081 13.815 27.704)" fill="#01D4E4" style="mix-blend-mode:multiply"/><circle r="1.152" transform="scale(1 -1) rotate(9.081 117.13 78.23)" fill="#01D4E4" style="mix-blend-mode:multiply"/><circle cx="18.151" cy="29.98" r="1.152" transform="rotate(9.081 18.151 29.98)" fill="#01D4E4" style="mix-blend-mode:multiply"/><circle r="1.152" transform="scale(1 -1) rotate(9.081 104.972 106.667)" fill="#01D4E4" style="mix-blend-mode:multiply"/><circle cx="22.731" cy="29.98" r="1.152" transform="rotate(9.081 22.731 29.98)" fill="#01D4E4" style="mix-blend-mode:multiply"/><circle r="1.152" transform="scale(1 -1) rotate(9.081 107.262 135.504)" fill="#01D4E4" style="mix-blend-mode:multiply"/><circle cx="26.079" cy="27.704" r="1.152" transform="rotate(9.081 26.079 27.704)" fill="#01D4E4" style="mix-blend-mode:multiply"/><circle r="1.152" transform="scale(1 -1) rotate(9.081 123.262 155.443)" fill="#01D4E4" style="mix-blend-mode:multiply"/><circle r="1.152" transform="scale(1 -1) rotate(9.081 161.814 227.633)" fill="#01D4E4" style="mix-blend-mode:multiply"/><circle r="1.152" transform="scale(1 -1) rotate(9.081 163.966 254.736)" fill="#01D4E4" style="mix-blend-mode:multiply"/><circle r="1.152" transform="scale(1 -1) rotate(9.081 166.118 281.839)" fill="#01D4E4" style="mix-blend-mode:multiply"/><circle cx="57.288" cy="22.673" r="4.224" fill="#01D4E4"/></svg>
